public/assets/heatEq3.svg

<svg width="75" height="113" viewBox="0 0 75 113" fill="none" xmlns="http://www.w3.org/2000/svg">
<path d="M75 15.7959H0V112.809H75V15.7959Z" fill="url(#paint0_linear_175_649)"/>
<path d="M69.4018 19.9922H5.59814V95.4092H69.4018V19.9922Z" fill="#FEF7EC"/>
<path d="M64.2585 26.082H10.7539V89.3171H64.2585V26.082Z" fill="#062023"/>
<path d="M67.1775 68.8201H66.8111C66.4699 68.8201 66.1919 68.5295 66.1919 68.163L65.4463 47.2489C65.4463 46.8824 65.7243 46.5918 66.0655 46.5918H67.9105C68.2517 46.5918 68.5297 46.8824 68.5297 47.2489L67.7841 68.163C67.7968 68.5168 67.5187 68.8201 67.1775 68.8201Z" fill="#062023"/>
<path d="M37.4435 86.4493C16.4283 86.4493 17.414 63.1721 25.1352 54.857C24.5665 56.9421 24.1621 62.1106 27.89 64.1325C26.184 59.2041 24.3517 50.0676 40.628 38.5049C34.5244 46.8579 47.831 47.7172 44.4444 67.2159C49.398 64.1199 46.8706 51.3945 43.3702 48.8419C56.6769 54.2884 62.869 86.4493 37.4435 86.4493Z" fill="#F5AE3D"/>
<path d="M37.7098 85.6155C29.6727 85.6155 25.9953 78.324 29.4073 70.5776C29.104 71.677 30.0897 74.0528 32.6676 73.8253C31.7704 71.2221 30.8606 65.6998 38.7081 61.5928C37.2675 66.7739 42.0821 67.8354 42.0948 73.3324C43.0425 72.9407 44.4452 71.5633 44.4326 69.0233C49.083 79.2465 44.66 85.6155 37.7098 85.6155Z" fill="#FEF7EC"/>
<path d="M47.7544 0H27.2573V15.7961H47.7544V0Z" fill="url(#paint1_linear_175_649)"/>
<defs>
<linearGradient id="paint0_linear_175_649" x1="-5.50141" y1="21.2952" x2="80.5066" y2="107.303" gradientUnits="userSpaceOnUse">
<stop offset="0.00249518" stop-color="#28C985"/>
<stop offset="1" stop-color="#18808A"/>
</linearGradient>
<linearGradient id="paint1_linear_175_649" x1="28.4286" y1="-1.17656" x2="46.5757" y2="16.9706" gradientUnits="userSpaceOnUse">
<stop offset="0.00249518" stop-color="#28C985"/>
<stop offset="1" stop-color="#18808A"/>
</linearGradient>
</defs>
</svg>

<svg width="75" height="113" fill="none" xmlns="http://www.w3.org/2000/svg"><path d="M75 15.796H0v97.013h75V15.796z" fill="url(#a)"/><path d="M69.402 19.992H5.598V95.41h63.804V19.992z" fill="#FEF7EC"/><path d="M64.258 26.082H10.755v63.235h53.505V26.082zM67.177 68.82h-.366c-.341 0-.62-.29-.62-.657l-.745-20.914c0-.367.278-.657.62-.657h1.844c.342 0 .62.29.62.657l-.746 20.914c.013.354-.265.657-.607.657z" fill="#062023"/><path d="M37.444 86.45c-21.016 0-20.03-23.278-12.309-31.593-.569 2.085-.973 7.254 2.755 9.275-1.706-4.928-3.538-14.064 12.738-25.627-6.104 8.353 7.203 9.212 3.816 28.71 4.954-3.095 2.427-15.82-1.074-18.373 13.307 5.446 19.499 37.607-5.926 37.607z" fill="#F5AE3D"/><path d="M37.71 85.615c-8.037 0-11.715-7.291-8.303-15.037-.303 1.099.683 3.475 3.26 3.247-.897-2.603-1.806-8.125 6.041-12.232-1.44 5.18 3.374 6.242 3.387 11.74.947-.392 2.35-1.77 2.338-4.31 4.65 10.224.227 16.593-6.723 16.593z" fill="#FEF7EC"/><path d="M47.754 0H27.257v15.796h20.497V0z" fill="url(#b)"/><defs><linearGradient id="a" x1="-5.501" y1="21.295" x2="80.507" y2="107.303" gradientUnits="userSpaceOnUse"><stop offset=".002" stop-color="#28C985"/><stop offset="1" stop-color="#18808A"/></linearGradient><linearGradient id="b" x1="28.429" y1="-1.177" x2="46.576" y2="16.971" gradientUnits="userSpaceOnUse"><stop offset=".002" stop-color="#28C985"/><stop offset="1" stop-color="#18808A"/></linearGradient></defs></svg>
